!!!COM: Haydn, Franz Joseph
!!!OPR: Symphony in G Minor
!!!OTL: Affettuoso 
!!!OMV: 2
!!!SCT: H I:83
!!!SCA: Thematisch-bibliographisches Werkevererzeichnis (A. van Hoboken)
!!!YOR: RISM H 3039, Choron Edition
!!!EED: Frances Bennion
!!!ENC: Frances Bennion
!!!CDT: 1732/3/31/-1809/5/31/
!!!OCY: Österreich
!!!YEC: Copyright (c) 1994, 2000 Center for Computer Assisted Research in the Humanities
!!!YEM: Rights to all derivative editions reserved.
!!!YEM: Refer to licensing agreement for further details.
!!!YEN: United States of America
**kern	**kern	**kern	**kern	**kern	**kern	**kern	**kern	**kern	**kern	**kern	**kern
*k[]	*k[b-e-a-]	*k[b-e-a-]	*k[b-e-a-]	*k[]	*k[b-e-a-]	*k[b-e-a-]	*k[b-e-a-]	*k[b-e-a-]	*k[b-e-a-]	*k[b-e-a-]	*k[b-e-a-]
*C:	*C:	*C:	*C:	*C:	*C:	*C:	*C:	*C:	*C:	*C:	*C:
*clefF	*clefC3	*clefF4	*clefF4	*clefF	*clefF	*clefF	*clefF	*clefF4	*clefF4	*clefF	*clefF
*M3/4	*M3/4	*M3/4	*M3/4	*M3/4	*M3/4	*M3/4	*M3/4	*M3/4	*M3/4	*M3/4	*M3/4
*tb32	*tb32	*tb32	*tb32	*tb32	*tb32	*tb32	*tb32	*tb32	*tb32	*tb32	*tb32
=1	=1	=1	=1	=1	=1	=1	=1	=1	=1	=1	=1
2.r	2.r	4E-	4E-	2.r	2.r	2.r	2.r	2.r	2.r	8r	2.r
.	.	.	.	.	.	.	.	.	.	8e-	.
.	.	2r	2r	.	.	.	.	.	.	8e-	.
.	.	.	.	.	.	.	.	.	.	8e-	.
.	.	.	.	.	.	.	.	.	.	8e-	.
.	.	.	.	.	.	.	.	.	.	8e-	.
=2	=2	=2	=2	=2	=2	=2	=2	=2	=2	=2	=2
2.r	8r	8r	8r	2.r	2.r	2.r	2.r	2.r	2.r	4b-	8r
.	8e-	8E-	8E-	.	.	.	.	.	.	.	8c
.	8e-	8E-	8E-	.	.	.	.	.	.	4a-	8c
.	8e-	8E-	8E-	.	.	.	.	.	.	.	8c
.	8e-	8E-	8E-	.	.	.	.	.	.	8.g	8B-
.	8e-	8E-	8E-	.	.	.	.	.	.	.	8B-
.	.	.	.	.	.	.	.	.	.	32f	.
.	.	.	.	.	.	.	.	.	.	32g	.
=3	=3	=3	=3	=3	=3	=3	=3	=3	=3	=3	=3
2.r	4e-	4E-	4E-	2.r	2.r	2.r	2.r	2.r	2.r	8f	4A-
.	.	.	.	.	.	.	.	.	.	8f	.
.	2r	2r	2r	.	.	.	.	.	.	8f	2r
.	.	.	.	.	.	.	.	.	.	8f	.
.	.	.	.	.	.	.	.	.	.	8f	.
.	.	.	.	.	.	.	.	.	.	8f	.
=4	=4	=4	=4	=4	=4	=4	=4	=4	=4	=4	=4
2.r	8r	8r	8r	2.r	2.r	2.r	2.r	2.r	2.r	4cc	8r
.	8a-	8E-	8E-	.	.	.	.	.	.	.	8d
.	8g	8E-	8E-	.	.	.	.	.	.	4b-	8d
.	8g	8E-	8E-	.	.	.	.	.	.	.	8d
.	8f	8E-	8E-	.	.	.	.	.	.	8.a-	8d
.	8f	8E-	8E-	.	.	.	.	.	.	.	8d
.	.	.	.	.	.	.	.	.	.	32g	.
.	.	.	.	.	.	.	.	.	.	32a-	.
=5	=5	=5	=5	=5	=5	=5	=5	=5	=5	=5	=5
2.r	4e-	4E-	4E-	2.r	2.r	2.r	2.r	2.r	2.r	8g	4e-
.	.	.	.	.	.	.	.	.	.	8ee-	.
.	2r	2r	2r	.	.	.	.	.	.	8ee-	2r
.	.	.	.	.	.	.	.	.	.	8ee-	.
.	.	.	.	.	.	.	.	.	.	8ee-	.
.	.	.	.	.	.	.	.	.	.	8ee-	.
=6	=6	=6	=6	=6	=6	=6	=6	=6	=6	=6	=6
2.r	8r	8r	8r	2.r	2.r	2.r	2.r	2.r	2.r	[4gg	8r
.	8B-	8GG	8GG	.	.	.	.	.	.	.	8e-
.	8B-	8GG	8GG	.	.	.	.	.	.	16gg]	8e-
.	.	.	.	.	.	.	.	.	.	16aa-	.
.	8B-	8GG	8GG	.	.	.	.	.	.	16aa	8e-
.	.	.	.	.	.	.	.	.	.	16bb-	.
.	8B-	8GG	8GG	.	.	.	.	.	.	16aa-	8e-
.	.	.	.	.	.	.	.	.	.	16gg	.
.	8B-	8GG	8GG	.	.	.	.	.	.	16ff	8e-
.	.	.	.	.	.	.	.	.	.	16ee-	.
=7	=7	=7	=7	=7	=7	=7	=7	=7	=7	=7	=7
2.r	8A-	8AA-	8AA-	2.r	2.r	2.r	2.r	2.r	2.r	16dd	8e-
.	.	.	.	.	.	.	.	.	.	16cc	.
.	8A-	8AA-	8AA-	.	.	.	.	.	.	16ee-	8e-
.	.	.	.	.	.	.	.	.	.	16cc	.
.	8B-	8BB-	8BB-	.	.	.	.	.	.	4b-	8g
.	8B-	8BB-	8BB-	.	.	.	.	.	.	.	8g
.	8d	8BB-	8BB-	.	.	.	.	.	.	8.a-	8f
.	8d	8BB-	8BB-	.	.	.	.	.	.	.	8f
.	.	.	.	.	.	.	.	.	.	32g	.
.	.	.	.	.	.	.	.	.	.	32a-	.
=8	=8	=8	=8	=8	=8	=8	=8	=8	=8	=8	=8
2.r	4e-	4E-	4E-	2.r	8r	8r	2.r	8r	8r	4g	4e-
.	.	.	.	.	8ee-	8cc	.	8e-	8c	.	.
.	2r	2r	2r	.	8dd	8b-	.	8d	8B-	2r	2r
.	.	.	.	.	8cc	8a-	.	8c	8A-	.	.
.	.	.	.	.	8b-	8g	.	8B-	8G	.	.
.	.	.	.	.	8a-	8f	.	8A-	8F	.	.
=9	=9	=9	=9	=9	=9	=9	=9	=9	=9	=9	=9
2.r	4e-	4E-	4E-	2.r	4g	4e-	2.r	4G	4E-	2.r	8r
.	.	.	.	.	.	.	.	.	.	.	8e-
.	2r	2r	2r	.	2r	2r	.	2r	2r	.	8e-
.	.	.	.	.	.	.	.	.	.	.	8e-
.	.	.	.	.	.	.	.	.	.	.	8e-
.	.	.	.	.	.	.	.	.	.	.	8e-
=10	=10	=10	=10	=10	=10	=10	=10	=10	=10	=10	=10
2.r	8r	8r	8r	2.r	2.r	2.r	2.r	2.r	2.r	8r	4b-
.	8e-	8E-	8E-	.	.	.	.	.	.	8gg	.
.	8e-	8E-	8E-	.	.	.	.	.	.	16ff	4a-
.	.	.	.	.	.	.	.	.	.	16ccc	.
.	8e-	8E-	8E-	.	.	.	.	.	.	16bb-	.
.	.	.	.	.	.	.	.	.	.	16dd	.
.	8e-	8E-	8E-	.	.	.	.	.	.	8ee-	8.g
.	8e-	8E-	8E-	.	.	.	.	.	.	8r	.
.	.	.	.	.	.	.	.	.	.	.	32f
.	.	.	.	.	.	.	.	.	.	.	32g
=11	=11	=11	=11	=11	=11	=11	=11	=11	=11	=11	=11
2.r	4e-	4E-	4E-	2.r	2.r	2.r	2.r	2.r	2.r	2.r	8f
.	.	.	.	.	.	.	.	.	.	.	8f
.	2r	2r	2r	.	.	.	.	.	.	.	8f
.	.	.	.	.	.	.	.	.	.	.	8f
.	.	.	.	.	.	.	.	.	.	.	8f
.	.	.	.	.	.	.	.	.	.	.	8f
=12	=12	=12	=12	=12	=12	=12	=12	=12	=12	=12	=12
2.r	8r	8r	8r	2.r	2.r	2.r	2.r	2.r	2.r	8r	4cc
.	8d	8d	8d	.	.	.	.	.	.	8aa-	.
.	8d	8d	8d	.	.	.	.	.	.	16aa-	4b-
.	.	.	.	.	.	.	.	.	.	16gg	.
.	8d	8d	8d	.	.	.	.	.	.	16ff#	.
.	.	.	.	.	.	.	.	.	.	16gg	.
.	8d	8d	8d	.	.	.	.	.	.	16gg	8.a-
.	.	.	.	.	.	.	.	.	.	16ff	.
.	8d	8d	8d	.	.	.	.	.	.	16ee	.
.	.	.	.	.	.	.	.	.	.	16ff	32g
.	.	.	.	.	.	.	.	.	.	.	32a-
=13	=13	=13	=13	=13	=13	=13	=13	=13	=13	=13	=13
2.r	4e-	4e-	4e-	2.r	2.r	2.r	2.r	2.r	2.r	16ff	4g
.	.	.	.	.	.	.	.	.	.	16ee-	.
.	.	.	.	.	.	.	.	.	.	16dd	.
.	.	.	.	.	.	.	.	.	.	16ee-	.
.	4r	4r	4r	.	.	.	.	.	.	16ee-	4r
.	.	.	.	.	.	.	.	.	.	16ff	.
.	.	.	.	.	.	.	.	.	.	16gg	.
.	.	.	.	.	.	.	.	.	.	16aa-	.
.	4G	4G	4G	.	.	.	.	.	.	8bb-	4e-
.	.	.	.	.	.	.	.	.	.	8bb-	.
=14	=14	=14	=14	=14	=14	=14	=14	=14	=14	=14	=14
2.r	8r	8r	8r	2.r	2.r	2.r	2.r	2.r	2.r	4bb	8r
.	8A-	8A-	8A-	.	.	.	.	.	.	.	8e-
.	8A-	8A-	8A-	.	.	.	.	.	.	4.ccc	8e-
.	8A-	8A-	8A-	.	.	.	.	.	.	.	8e
.	8A-	8A-	8A-	.	.	.	.	.	.	.	8f
.	8A-	8A-	8A-	.	.	.	.	.	.	32bb-	8f
.	.	.	.	.	.	.	.	.	.	32aa-	.
.	.	.	.	.	.	.	.	.	.	32gg	.
.	.	.	.	.	.	.	.	.	.	32ff	.
=15	=15	=15	=15	=15	=15	=15	=15	=15	=15	=15	=15
2.r	8r	8r	8r	2.r	2.r	2.r	2.r	2.r	2.r	[4ee-	8r
.	8B-	8B-	8B-	.	.	.	.	.	.	.	8f
.	8B-	8B-	8B-	.	.	.	.	.	.	16ee-]	8f
.	.	.	.	.	.	.	.	.	.	16dd	.
.	8B-	8B-	8B-	.	.	.	.	.	.	16cc	8f
.	.	.	.	.	.	.	.	.	.	16b-	.
.	8B-	8d	8d	.	.	.	.	.	.	16a	8f
.	.	.	.	.	.	.	.	.	.	16b-	.
.	8B-	8d	8d	.	.	.	.	.	.	16cc	8f
.	.	.	.	.	.	.	.	.	.	16a-	.
=16	=16	=16	=16	=16	=16	=16	=16	=16	=16	=16	=16
2.r	4E-	4e-	4e-	2.r	2.r	2.r	2.r	2.r	2.r	8g	4e-
.	.	.	.	.	.	.	.	.	.	16f	.
.	.	.	.	.	.	.	.	.	.	16e-	.
.	2r	8r	8r	.	.	.	.	.	.	4e-	2r
.	.	8E-	8E-	.	.	.	.	.	.	.	.
.	.	8BB-	8BB-	.	.	.	.	.	.	4r	.
.	.	8GG	8GG	.	.	.	.	.	.	.	.
=17	=17	=17	=17	=17	=17	=17	=17	=17	=17	=17	=17
2.r	8r	4EE-	4EE-	2.r	2.r	2.r	2.r	2.r	2.r	2gg	2.r
.	8e-	.	.	.	.	.	.	.	.	.	.
.	8e-	2r	2r	.	.	.	.	.	.	.	.
.	8e-	.	.	.	.	.	.	.	.	.	.
.	8e-	.	.	.	.	.	.	.	.	16ff	.
.	.	.	.	.	.	.	.	.	.	16ee-	.
.	8e-	.	.	.	.	.	.	.	.	16dd	.
.	.	.	.	.	.	.	.	.	.	16cc	.
=18	=18	=18	=18	=18	=18	=18	=18	=18	=18	=18	=18
2.r	8r	4GG	4GG	2.r	2.r	2.r	2.r	2.r	2.r	8.cc	4.f
.	8d	.	.	.	.	.	.	.	.	.	.
.	.	.	.	.	.	.	.	.	.	16b	.
.	8d	2r	2r	.	.	.	.	.	.	2b	.
.	8d	.	.	.	.	.	.	.	.	.	8a-
.	8G	.	.	.	.	.	.	.	.	.	16g
.	.	.	.	.	.	.	.	.	.	.	16f
.	8G	.	.	.	.	.	.	.	.	.	16e-
.	.	.	.	.	.	.	.	.	.	.	16d
=19	=19	=19	=19	=19	=19	=19	=19	=19	=19	=19	=19
2.r	4G	4E-	4E-	2.r	2.r	2.r	2.r	2.r	2.r	16cc	4c
.	.	.	.	.	.	.	.	.	.	16dd	.
.	.	.	.	.	.	.	.	.	.	16ee-	.
.	.	.	.	.	.	.	.	.	.	16ee	.
.	2r	2r	2r	.	.	.	.	.	.	16ff	2r
.	.	.	.	.	.	.	.	.	.	16ff#	.
.	.	.	.	.	.	.	.	.	.	16aa-	.
.	.	.	.	.	.	.	.	.	.	16gg	.
.	.	.	.	.	.	.	.	.	.	16ff	.
.	.	.	.	.	.	.	.	.	.	16ee-	.
.	.	.	.	.	.	.	.	.	.	16dd	.
.	.	.	.	.	.	.	.	.	.	16cc	.
=20	=20	=20	=20	=20	=20	=20	=20	=20	=20	=20	=20
2.r	4e-	4F	4F	2.r	2.r	2.r	2.r	2.r	2.r	8.b-	16c
.	.	.	.	.	.	.	.	.	.	.	16d
.	.	.	.	.	.	.	.	.	.	.	16e-
.	.	.	.	.	.	.	.	.	.	16a	16d
.	2r	2r	2r	.	.	.	.	.	.	2a	16e-
.	.	.	.	.	.	.	.	.	.	.	16e
.	.	.	.	.	.	.	.	.	.	.	16f
.	.	.	.	.	.	.	.	.	.	.	16f#
.	.	.	.	.	.	.	.	.	.	.	8g
.	.	.	.	.	.	.	.	.	.	.	16f
.	.	.	.	.	.	.	.	.	.	.	16e-
=21	=21	=21	=21	=21	=21	=21	=21	=21	=21	=21	=21
2.r	4d	4F	4F	2.r	2.r	2.r	2.r	2.r	2.r	16b-	4d
.	.	.	.	.	.	.	.	.	.	16cc	.
.	.	.	.	.	.	.	.	.	.	16dd	.
.	.	.	.	.	.	.	.	.	.	16ee-	.
.	4r	4r	4r	.	.	.	.	.	.	16ee	4r
.	.	.	.	.	.	.	.	.	.	16ff	.
.	.	.	.	.	.	.	.	.	.	16gg	.
.	.	.	.	.	.	.	.	.	.	16ff	.
.	8d	4E	4E	.	.	.	.	.	.	8bb-	4B-
.	8e	.	.	.	.	.	.	.	.	8dd	.
=22	=22	=22	=22	=22	=22	=22	=22	=22	=22	=22	=22
2.r	4f	4F	4F	2.r	2.r	2.r	2.r	2.r	2.r	8.ee-	4B-
.	.	.	.	.	.	.	.	.	.	16dd	.
.	4F	4FF	4FF	.	.	.	.	.	.	8cc	8A
.	.	.	.	.	.	.	.	.	.	4.r	4.r
.	4r	4r	4r	.	.	.	.	.	.	.	.
=23	=23	=23	=23	=23	=23	=23	=23	=23	=23	=23	=23
8g	4B-	4BB-	4BB-	8G	8bb-	8bb-	8bb-	4BB-	4BB-	16bb-	16bb-
.	.	.	.	.	.	.	.	.	.	32aa	32aa
.	.	.	.	.	.	.	.	.	.	32gg	32gg
8r	.	.	.	8r	8r	8r	8r	.	.	32ff	32ff
.	.	.	.	.	.	.	.	.	.	32ee-	32ee-
.	.	.	.	.	.	.	.	.	.	32dd	32dd
.	.	.	.	.	.	.	.	.	.	32cc	32cc
8g	16b-	16B-	16B-	8G	16bb-	16bb-	16bb-	16B-	16B-	16b-	16b-
.	32a	32A	32A	.	32aa	32aa	32aa	32A	32A	32a	32a
.	32g	32G	32G	.	32gg	32gg	32gg	32G	32G	32g	32g
8r	32f	32F	32F	8r	32ff	32ff	32ff	32F	32F	32f	32f
.	32e-	32E-	32E-	.	32ee-	32ee-	32ee-	32E-	32E-	32e-	32e-
.	32d	32D	32D	.	32dd	32dd	32dd	32D	32D	32d	32d
.	32c	32C	32C	.	32cc	32cc	32cc	32C	32C	32c	32c
8g	8B-	8BB-	8BB-	8G	8b-	8b-	8b-	8BB-	8BB-	8B-	8B-
8r	8A	8r	8r	8r	8r	8r	8r	8r	8r	8r	8c
=24	=24	=24	=24	=24	=24	=24	=24	=24	=24	=24	=24
2.r	8B-	2.r	2.r	2.r	2.r	2.r	2.r	2.r	2.r	2.r	8d
.	8c	.	.	.	.	.	.	.	.	.	8e-
.	8d	.	.	.	.	.	.	.	.	.	8f
.	8d	.	.	.	.	.	.	.	.	.	8f
.	8d	.	.	.	.	.	.	.	.	.	8f
.	8d	.	.	.	.	.	.	.	.	.	8f
=25	=25	=25	=25	=25	=25	=25	=25	=25	=25	=25	=25
2.r	8d	2.r	2.r	2.r	2.r	2.r	2.r	2.r	2.r	2.r	8f
.	8d	.	.	.	.	.	.	.	.	.	8f
.	8d	.	.	.	.	.	.	.	.	.	8f
.	8d	.	.	.	.	.	.	.	.	.	8f
.	8d	.	.	.	.	.	.	.	.	.	8f
.	8d	.	.	.	.	.	.	.	.	.	8f
=26	=26	=26	=26	=26	=26	=26	=26	=26	=26	=26	=26
2.r	8e-	2.r	2.r	2.r	2.r	2.r	2.r	2.r	2.r	8aa	8g-
.	8e-	.	.	.	.	.	.	.	.	8aa	8g-
.	8e-	.	.	.	.	.	.	.	.	8aa	8g-
.	8e-	.	.	.	.	.	.	.	.	8aa	8g-
.	8e-	.	.	.	.	.	.	.	.	8aa	8g-
.	8e-	.	.	.	.	.	.	.	.	8aa	8g-
=27	=27	=27	=27	=27	=27	=27	=27	=27	=27	=27	=27
2dd	32f	32A	32A	2dd	2ccc	2.ff	2eee-	2A	2A	32eee-	32f 32cc
.	32f	32A	32A	.	.	.	.	.	.	32eee-	32cc 32f
.	32f	32A	32A	.	.	.	.	.	.	32eee-	32cc 32f
.	32f	32A	32A	.	.	.	.	.	.	32eee-	32f 32cc
.	32f	32A	32A	.	.	.	.	.	.	32eee-	32cc 32f
.	32f	32A	32A	.	.	.	.	.	.	32eee-	32f 32cc
.	32f	32A	32A	.	.	.	.	.	.	32eee-	32f 32cc
.	32f	32A	32A	.	.	.	.	.	.	32eee-	32f 32cc
.	32f	32A	32A	.	.	.	.	.	.	32eee-	32f 32cc
.	32f	32A	32A	.	.	.	.	.	.	32eee-	32f 32cc
.	32f	32A	32A	.	.	.	.	.	.	32eee-	32f 32cc
.	32f	32A	32A	.	.	.	.	.	.	32eee-	32cc 32f
.	32f	32A	32A	.	.	.	.	.	.	32eee-	32f 32cc
.	32f	32A	32A	.	.	.	.	.	.	32eee-	32f 32cc
.	32f	32A	32A	.	.	.	.	.	.	32eee-	32f 32cc
.	32f	32A	32A	.	.	.	.	.	.	32eee-	32cc 32f
4dd	32f	32B-	32B-	4g	4bb-	.	4ddd	4B-	4B-	32ddd	32dd 32f
.	32f	32B-	32B-	.	.	.	.	.	.	32ddd	32dd 32f
.	32f	32B-	32B-	.	.	.	.	.	.	32ddd	32dd 32f
.	32f	32B-	32B-	.	.	.	.	.	.	32ddd	32f 32dd
.	32f	32B-	32B-	.	.	.	.	.	.	32ddd	32f 32dd
.	32f	32B-	32B-	.	.	.	.	.	.	32ddd	32dd 32f
.	32f	32B-	32B-	.	.	.	.	.	.	32ddd	32f 32dd
.	32f	32B-	32B-	.	.	.	.	.	.	32ddd	32f 32dd
=28	=28	=28	=28	=28	=28	=28	=28	=28	=28	=28	=28
8ee	8g	8E-	8E-	8cc	8ccc	8ee-	8ccc	8E-	8E-	8ccc	8ee-
8r	8r	8r	8r	8r	8r	8r	8r	8r	8r	8r	8r
8dd	8f	8F	8F	8dd	8bb-	8dd	8bb-	8F	8F	8bb-	8dd
8r	8r	8r	8r	8r	8r	8r	8r	8r	8r	8r	8r
8dd	8f	8F	8F	8dd	8aa	8cc	8aa	8F	8F	8aa	8cc
8r	8r	8r	8r	8r	8r	8r	8r	8r	8r	8r	8r
=29	=29	=29	=29	=29	=29	=29	=29	=29	=29	=29	=29
2.r	8b-	8B-	8B-	2.r	2.r	2.r	2.r	2.r	2.r	8dd	8b-
.	8r	8r	8r	.	.	.	.	.	.	16dd	8r
.	.	.	.	.	.	.	.	.	.	16cc	.
.	8f	8F	8F	.	.	.	.	.	.	8cc	8a
.	8r	8r	8r	.	.	.	.	.	.	16cc	8r
.	.	.	.	.	.	.	.	.	.	16b-	.
.	8g	8G	8G	.	.	.	.	.	.	8b-	8d
.	8r	8r	8r	.	.	.	.	.	.	16b-	8r
.	.	.	.	.	.	.	.	.	.	16a	.
=30	=30	=30	=30	=30	=30	=30	=30	=30	=30	=30	=30
2.r	8d	8D	8D	2.r	2.r	2.r	2.r	2.r	2.r	8a	8f
.	8r	8r	8r	.	.	.	.	.	.	16a	8r
.	.	.	.	.	.	.	.	.	.	16g	.
.	8e-	8E-	8E-	.	.	.	.	.	.	8g	8B-
.	8r	8r	8r	.	.	.	.	.	.	16g	8r
.	.	.	.	.	.	.	.	.	.	16f	.
.	8B-	8BB-	8BB-	.	.	.	.	.	.	16f	8d
.	.	.	.	.	.	.	.	.	.	16g	.
.	8r	8r	8r	.	.	.	.	.	.	16a	8r
.	.	.	.	.	.	.	.	.	.	16b-	.
=31	=31	=31	=31	=31	=31	=31	=31	=31	=31	=31	=31
2.r	8E-	8E-	8E-	2.r	2.r	2.r	2.r	2.r	2.r	16a	8B-
.	.	.	.	.	.	.	.	.	.	16g	.
.	8r	8r	8r	.	.	.	.	.	.	16f	8r
.	.	.	.	.	.	.	.	.	.	16e-	.
.	8F	8F	8F	.	.	.	.	.	.	16d	8B-
.	.	.	.	.	.	.	.	.	.	16e-	.
.	8r	8r	8r	.	.	.	.	.	.	16f	8r
.	.	.	.	.	.	.	.	.	.	16g	.
.	8F	8F	8F	.	.	.	.	.	.	16f	8A
.	.	.	.	.	.	.	.	.	.	16e-	.
.	8r	8r	8r	.	.	.	.	.	.	16d	8r
.	.	.	.	.	.	.	.	.	.	16c	.
=32	=32	=32	=32	=32	=32	=32	=32	=32	=32	=32	=32
2.r	4B-	4BB-	4BB-	2.r	2.r	2.r	2.r	2.r	2.r	8B-	4B-
.	.	.	.	.	.	.	.	.	.	8d	.
.	2r	2r	2r	.	.	.	.	.	.	8f	2r
.	.	.	.	.	.	.	.	.	.	8b-	.
.	.	.	.	.	.	.	.	.	.	8dd	.
.	.	.	.	.	.	.	.	.	.	8ff	.
=33	=33	=33	=33	=33	=33	=33	=33	=33	=33	=33	=33
2.r	8d	8d	8d	2.r	2.r	2.r	2.r	2.r	2.r	8bb-	8f
.	16d	16d	16d	.	.	.	.	.	.	16bb-	8f
.	16e-	16e-	16e-	.	.	.	.	.	.	16aa	.
.	8d	8d	8d	.	.	.	.	.	.	8bb-	8f
.	16d	16d	16d	.	.	.	.	.	.	16bb-	8f
.	16e-	16e-	16e-	.	.	.	.	.	.	16aa	.
.	8d	8d	8d	.	.	.	.	.	.	8bb-	8f
.	16d	16d	16d	.	.	.	.	.	.	16bb-	8f
.	16e-	16e-	16e-	.	.	.	.	.	.	16aa	.
=34	=34	=34	=34	=34	=34	=34	=34	=34	=34	=34	=34
2.r	8d	8d	8d	2.r	2.r	2.r	2.r	2.r	2.r	8bb-	8b-
.	8d	8d	8d	.	.	.	.	.	.	8ff#	8b-
.	8d	8d	8d	.	.	.	.	.	.	8ff#	8b-
.	8d	8d	8d	.	.	.	.	.	.	8ff#	8b-
.	8d	8d	8d	.	.	.	.	.	.	8ff#	8b-
.	8d	8d	8d	.	.	.	.	.	.	8ff#	8b-
=35	=35	=35	=35	=35	=35	=35	=35	=35	=35	=35	=35
2.r	8e-	8e-	8e-	2.r	2.r	2.r	2.r	2.r	2.r	4ff#	8b-
.	8e-	8e-	8e-	.	.	.	.	.	.	.	8b-
.	8e-	8e-	8e-	.	.	.	.	.	.	4gg	8b-
.	8e-	8e-	8e-	.	.	.	.	.	.	.	8b-
.	8e-	8e-	8e-	.	.	.	.	.	.	4aa-	8cc-
.	8e-	8e-	8e-	.	.	.	.	.	.	.	8cc-
=36	=36	=36	=36	=36	=36	=36	=36	=36	=36	=36	=36
2.r	8e-	8e-	8e-	2.r	2.r	2.r	2.r	2.r	2.r	4aa	8cc
.	8e-	8e-	8e-	.	.	.	.	.	.	.	8cc
.	8e	8e	8e	.	.	.	.	.	.	8bb-	8dd-
.	8e	8e	8e	.	.	.	.	.	.	8bb-	8dd-
.	8e	8e	8e	.	.	.	.	.	.	8bb-	8dd-
.	8e	8e	8e	.	.	.	.	.	.	8bb-	8dd-
=37	=37	=37	=37	=37	=37	=37	=37	=37	=37	=37	=37
2.r	4f	4f	4f	2.r	2.r	2.r	2.r	2.r	2.r	8bb-	4dd
.	.	.	.	.	.	.	.	.	.	32bb-	.
.	.	.	.	.	.	.	.	.	.	32aa	.
.	.	.	.	.	.	.	.	.	.	32bb-	.
.	.	.	.	.	.	.	.	.	.	32ccc	.
.	2r	2r	2r	.	.	.	.	.	.	16ddd	2r
.	.	.	.	.	.	.	.	.	.	16aa	.
.	.	.	.	.	.	.	.	.	.	16bb-	.
.	.	.	.	.	.	.	.	.	.	16ccc	.
.	.	.	.	.	.	.	.	.	.	16ddd	.
.	.	.	.	.	.	.	.	.	.	16aa	.
.	.	.	.	.	.	.	.	.	.	16bb-	.
.	.	.	.	.	.	.	.	.	.	16ccc	.
=38	=38	=38	=38	=38	=38	=38	=38	=38	=38	=38	=38
2.r	2.r	2.r	2.r	2.r	2.r	2.r	2.r	2.r	2.r	16ddd	2.r
.	.	.	.	.	.	.	.	.	.	16aa	.
.	.	.	.	.	.	.	.	.	.	16bb-	.
.	.	.	.	.	.	.	.	.	.	16ccc	.
.	.	.	.	.	.	.	.	.	.	16ddd	.
.	.	.	.	.	.	.	.	.	.	16aa	.
.	.	.	.	.	.	.	.	.	.	16ccc	.
.	.	.	.	.	.	.	.	.	.	16bb-	.
.	.	.	.	.	.	.	.	.	.	16aa	.
.	.	.	.	.	.	.	.	.	.	16gg	.
.	.	.	.	.	.	.	.	.	.	16ff	.
.	.	.	.	.	.	.	.	.	.	16ee	.
=39	=39	=39	=39	=39	=39	=39	=39	=39	=39	=39	=39
2.r	8f	8F	8F	2.r	2.r	2.r	2.r	2.r	2.r	16ee-	8b-
.	.	.	.	.	.	.	.	.	.	16dd	.
.	8f	8F	8F	.	.	.	.	.	.	16cc	8b-
.	.	.	.	.	.	.	.	.	.	16b-	.
.	8f	8F	8F	.	.	.	.	.	.	2cc	8b-
.	8f	8F	8F	.	.	.	.	.	.	.	8b-
.	8f	8F	8F	.	.	.	.	.	.	.	8a
.	8f	8F	8F	.	.	.	.	.	.	.	8a
=40	=40	=40	=40	=40	=40	=40	=40	=40	=40	=40	=40
2.r	4B-	4BB-	4BB-	2.r	16r	16r	2.r	2.r	2.r	4b-	4b-
.	.	.	.	.	16ff	16dd	.	.	.	.	.
.	.	.	.	.	16bb-	16g	.	.	.	.	.
.	.	.	.	.	16ff	16dd	.	.	.	.	.
.	4r	4r	4r	.	16gg	16ee-	.	.	.	4r	4r
.	.	.	.	.	16ff	16dd	.	.	.	.	.
.	.	.	.	.	16ee-	16cc	.	.	.	.	.
.	.	.	.	.	16dd	16b-	.	.	.	.	.
.	4f	4F	4F	.	16cc	16a	.	.	.	16cc	16a
.	.	.	.	.	16dd	16b-	.	.	.	16dd	16b-
.	.	.	.	.	16ee-	16cc	.	.	.	16ee-	16cc
.	.	.	.	.	16ee-	16cc	.	.	.	16ee-	16cc
=41	=41	=41	=41	=41	=41	=41	=41	=41	=41	=41	=41
2.r	4B-	4BB-	4BB-	2.r	16dd	16b-	2.r	2.r	2.r	4dd	4b-
.	.	.	.	.	16ff	16dd	.	.	.	.	.
.	.	.	.	.	16bb-	16b-	.	.	.	.	.
.	.	.	.	.	16ff	16dd	.	.	.	.	.
.	4r	4r	4r	.	16gg	16ee-	.	.	.	4r	4r
.	.	.	.	.	16ff	16dd	.	.	.	.	.
.	.	.	.	.	16ee-	16cc	.	.	.	.	.
.	.	.	.	.	16dd	16b-	.	.	.	.	.
.	4f	4F	4F	.	16cc	16a	.	.	.	16cc	16a
.	.	.	.	.	16dd	16b-	.	.	.	16dd	16b-
.	.	.	.	.	16ee-	16cc	.	.	.	16ee-	16cc
.	.	.	.	.	16ee-	16cc	.	.	.	16a	16e-
=42	=42	=42	=42	=42	=42	=42	=42	=42	=42	=42	=42
2.r	4B-	4BB-	4BB-	2.r	4ee-	4cc	2.r	2.r	2.r	4cc	4e-
.	2r	2r	2r	.	8dd	8b-	.	.	.	8b-	8d
.	.	.	.	.	4.r	4.r	.	.	.	4.r	4.r
=43	=43	=43	=43	=43	=43	=43	=43	=43	=43	=43	=43
2.r	[2.d	2.A-	2.A-	2.r	2.r	2.r	2.r	2.r	2.r	8r	[2.f
.	.	.	.	.	.	.	.	.	.	8b	.
.	.	.	.	.	.	.	.	.	.	8b	.
.	.	.	.	.	.	.	.	.	.	8b	.
.	.	.	.	.	.	.	.	.	.	8b	.
.	.	.	.	.	.	.	.	.	.	8b	.
=44	=44	=44	=44	=44	=44	=44	=44	=44	=44	=44	=44
2.r	8d]	8G	8G	2.r	2.r	2.r	2.r	2.r	2.r	4b	8f]
.	8d	8G	8G	.	.	.	.	.	.	.	8f
.	8c	8G	8G	.	.	.	.	.	.	4cc	8e-
.	8c	8G	8G	.	.	.	.	.	.	.	8e-
.	8B	8G	8G	.	.	.	.	.	.	8.dd	8d
.	8B	8G	8G	.	.	.	.	.	.	.	8d
.	.	.	.	.	.	.	.	.	.	32cc	.
.	.	.	.	.	.	.	.	.	.	32dd	.
=45	=45	=45	=45	=45	=45	=45	=45	=45	=45	=45	=45
2.r	4c	4c	4c	2.r	2.r	2.r	2.r	2.r	2.r	8ee-	4c
.	.	.	.	.	.	.	.	.	.	8ee-	.
.	2r	2r	2r	.	.	.	.	.	.	8ee-	2r
.	.	.	.	.	.	.	.	.	.	8ee-	.
.	.	.	.	.	.	.	.	.	.	8ee-	.
.	.	.	.	.	.	.	.	.	.	8ee-	.
=46	=46	=46	=46	=46	=46	=46	=46	=46	=46	=46	=46
2.r	8b-	8e-	8e-	2.r	2.r	2.r	2.r	2.r	2.r	4ee-	2.dd-
.	8b-	8e-	8e-	.	.	.	.	.	.	.	.
.	8b-	8e-	8e-	.	.	.	.	.	.	4ff	.
.	8b-	8e-	8e-	.	.	.	.	.	.	.	.
.	8b-	8e-	8e-	.	.	.	.	.	.	8.gg	.
.	8b-	8e-	8e-	.	.	.	.	.	.	.	.
.	.	.	.	.	.	.	.	.	.	32ff	.
.	.	.	.	.	.	.	.	.	.	32gg	.
=47	=47	=47	=47	=47	=47	=47	=47	=47	=47	=47	=47
2.r	8a-	8e-	8e-	2.r	2.r	2.r	2.r	2.r	2.r	4aa-	8cc
.	8a-	8e-	8e-	.	.	.	.	.	.	.	8cc
.	8g	8e-	8e-	.	.	.	.	.	.	4bb-	8g
.	8g	8e-	8e-	.	.	.	.	.	.	.	8g
.	8a-	8e-	8e-	.	.	.	.	.	.	8.ccc	8a-
.	8a-	8e-	8e-	.	.	.	.	.	.	.	8a-
.	.	.	.	.	.	.	.	.	.	32bb-	.
.	.	.	.	.	.	.	.	.	.	32ccc	.
=48	=48	=48	=48	=48	=48	=48	=48	=48	=48	=48	=48
2.r	4g	4e-	4e-	2.r	2.r	2.r	2.r	2.r	2.r	8ddd-	4b-
.	.	.	.	.	.	.	.	.	.	8bb-	.
.	2r	2r	2r	.	.	.	.	.	.	8gg	2r
.	.	.	.	.	.	.	.	.	.	8ee-	.
.	.	.	.	.	.	.	.	.	.	8dd-	.
.	.	.	.	.	.	.	.	.	.	8b-	.
=49	=49	=49	=49	=49	=49	=49	=49	=49	=49	=49	=49
2.r	8r	8r	8r	2.r	2.r	2.r	2.r	2.r	2.r	4a-	8r
.	8B-	8E-	8E-	.	.	.	.	.	.	.	8d-
.	8B-	8E-	8E-	.	.	.	.	.	.	4.g	8d-
.	8B-	8E-	8E-	.	.	.	.	.	.	.	8d-
.	8B-	8E-	8E-	.	.	.	.	.	.	.	8d-
.	8B-	8E-	8E-	.	.	.	.	.	.	8b-	8d-
=50	=50	=50	=50	=50	=50	=50	=50	=50	=50	=50	=50
2.r	8r	8r	8r	2.r	2.r	2.r	2.r	2.r	2.r	4a-	8r
.	8B-	8E	8E	.	.	.	.	.	.	.	8d-
.	8B-	8E	8E	.	.	.	.	.	.	4.g	8d-
.	8B-	8E	8E	.	.	.	.	.	.	.	8d-
.	8c	8E	8E	.	.	.	.	.	.	.	8c
.	8c	8E	8E	.	.	.	.	.	.	8cc	8c
=51	=51	=51	=51	=51	=51	=51	=51	=51	=51	=51	=51
2.r	8r	8r	8r	2.r	2.r	2.r	2.r	2.r	2.r	2b-	8r
.	8f	8F	8F	.	.	.	.	.	.	.	8c
.	8f	8F	8F	.	.	.	.	.	.	.	8c
.	8f	8F	8F	.	.	.	.	.	.	.	8c
.	8d-	8D-	8D-	.	.	.	.	.	.	8a-	8B
.	8d-	8D-	8D-	.	.	.	.	.	.	16g	8b
.	.	.	.	.	.	.	.	.	.	16f	.
=52	=52	=52	=52	=52	=52	=52	=52	=52	=52	=52	=52
2.r	16c	16C	16C	2.r	8cc	8cc	8ccc	16C	16C	16cc	16cc
.	32d	32D	32D	.	.	.	.	32D	32D	32dd	32dd
.	32e	32E	32E	.	.	.	.	32E	32E	32ee	32ee
.	32f	32F	32F	.	8r	8r	8r	32F	32F	32ff	32ff
.	32g	32G	32G	.	.	.	.	32G	32G	32gg	32gg
.	32a	32A	32A	.	.	.	.	32A	32A	32aa	32aa
.	32b	32B	32B	.	.	.	.	32B	32B	32bb	32bb
.	16cc	16c	16c	.	8cc	8cc	8ccc	16c	16c	16ccc	16ccc
.	32b	32B	32B	.	.	.	.	32B	32B	32bb	32bb
.	32a	32A	32A	.	.	.	.	32A	32A	32aa	32aa
.	32g	32G	32G	.	8r	8r	8r	32G	32G	32gg	32gg
.	32f	32F	32F	.	.	.	.	32F	32F	32ff	32ff
.	32e	32E	32E	.	.	.	.	32E	32E	32ee	32ee
.	32d	32D	32D	.	.	.	.	32D	32D	32dd	32dd
.	16c	16C	16C	.	8cc	8cc	8ccc	16C	16C	16cc	16cc
.	32d	32D	32D	.	.	.	.	32D	32D	32b	32b
.	32e	32E	32E	.	.	.	.	32E	32E	32a	32a
.	32f	32F	32F	.	8r	8r	8r	32F	32F	32g	32g
.	32g	32G	32G	.	.	.	.	32G	32G	32f	32f
.	32a	32A	32A	.	.	.	.	32A	32A	32e	32e
.	32b	32B	32B	.	.	.	.	32B	32B	32d	32d
=53	=53	=53	=53	=53	=53	=53	=53	=53	=53	=53	=53
2.r	4cc	8c	8c	2.r	4cc	4cc	4ccc	4c	4c	4c	4c
.	.	8c	8c	.	.	.	.	.	.	.	.
.	2r	8c	8c	.	2r	2r	2r	2r	2r	2r	2r
.	.	8c	8c	.	.	.	.	.	.	.	.
.	.	8c	8c	.	.	.	.	.	.	.	.
.	.	8c	8c	.	.	.	.	.	.	.	.
=54	=54	=54	=54	=54	=54	=54	=54	=54	=54	=54	=54
2.r	8e-	8c	8c	2.r	2.r	2.r	2.r	2.r	2.r	2.r	2.r
.	8e-	8c	8c	.	.	.	.	.	.	.	.
.	8e-	8c	8c	.	.	.	.	.	.	.	.
.	8e-	8c	8c	.	.	.	.	.	.	.	.
.	8e-	8c	8c	.	.	.	.	.	.	.	.
.	8e-	8c	8c	.	.	.	.	.	.	.	.
=55	=55	=55	=55	=55	=55	=55	=55	=55	=55	=55	=55
2.r	8e-	8B-	8B-	2.r	2.r	2.r	2.r	2.r	2.r	2.r	8f
.	8e-	8B-	8B-	.	.	.	.	.	.	.	8f
.	8e-	8B-	8B-	.	.	.	.	.	.	.	8f
.	8e-	8B-	8B-	.	.	.	.	.	.	.	8f
.	8e-	8B-	8B-	.	.	.	.	.	.	.	8f
.	8e-	8B-	8B-	.	.	.	.	.	.	.	8f
=56	=56	=56	=56	=56	=56	=56	=56	=56	=56	=56	=56
2.cc	32e-	32A-	32A-	2.c	2.gg-	2.ee-	2.ccc	2.A-	2.A-	32gg- 32ee-	32cc
.	32e-	32A-	32A-	.	.	.	.	.	.	32ee- 32gg-	32cc
.	32e-	32A-	32A-	.	.	.	.	.	.	32gg- 32ee-	32cc
.	32e-	32A-	32A-	.	.	.	.	.	.	32ee- 32gg-	32cc
.	32e-	32A-	32A-	.	.	.	.	.	.	32ee- 32gg-	32cc
.	32e-	32A-	32A-	.	.	.	.	.	.	32ee- 32gg-	32cc
.	32e-	32A-	32A-	.	.	.	.	.	.	32gg- 32ee-	32cc
.	32e-	32A-	32A-	.	.	.	.	.	.	32gg- 32ee-	32cc
.	32e-	32A-	32A-	.	.	.	.	.	.	32ee- 32gg-	32cc
.	32e-	32A-	32A-	.	.	.	.	.	.	32ee- 32gg-	32cc
.	32e-	32A-	32A-	.	.	.	.	.	.	32ee- 32gg-	32cc
.	32e-	32A-	32A-	.	.	.	.	.	.	32ee- 32gg-	32cc
.	32e-	32A-	32A-	.	.	.	.	.	.	32ee- 32gg-	32cc
.	32e-	32A-	32A-	.	.	.	.	.	.	32ee- 32gg-	32cc
.	32e-	32A-	32A-	.	.	.	.	.	.	32gg- 32ee-	32cc
.	32e-	32A-	32A-	.	.	.	.	.	.	32ee- 32gg-	32cc
.	32e-	32A-	32A-	.	.	.	.	.	.	32gg- 32ee-	32cc
.	32e-	32A-	32A-	.	.	.	.	.	.	32ee- 32gg-	32cc
.	32e-	32A-	32A-	.	.	.	.	.	.	32ee- 32gg-	32cc
.	32e-	32A-	32A-	.	.	.	.	.	.	32gg- 32ee-	32cc
.	32e-	32A-	32A-	.	.	.	.	.	.	32gg- 32ee-	32cc
.	32e-	32A-	32A-	.	.	.	.	.	.	32gg- 32ee-	32cc
.	32e-	32A-	32A-	.	.	.	.	.	.	32gg- 32ee-	32cc
.	32e-	32A-	32A-	.	.	.	.	.	.	32gg- 32ee-	32cc
=57	=57	=57	=57	=57	=57	=57	=57	=57	=57	=57	=57
2.r	8d-	4D-	4D-	2.r	4ff	4dd-	4ddd-	4D-	4D-	4ff 4dd-	8dd-
.	8d-	.	.	.	.	.	.	.	.	.	8f
.	8d-	2r	2r	.	2r	2r	2r	2r	2r	2r	8f
.	8d-	.	.	.	.	.	.	.	.	.	8f
.	8d-	.	.	.	.	.	.	.	.	.	8f
.	8d-	.	.	.	.	.	.	.	.	.	8f
=58	=58	=58	=58	=58	=58	=58	=58	=58	=58	=58	=58
16dd	32d	32A-	32A-	16g	16dd	16dd	16ff	32A-	32A-	32bb- 32dd	32b- 32ff
.	32d	32A-	32A-	.	.	.	.	32A-	32A-	32dd 32bb-	32ff 32b-
16dd	32d	32A-	32A-	16g	16dd	16dd	16ff	32A-	32A-	32dd 32bb-	32ff 32b-
.	32d	32A-	32A-	.	.	.	.	32A-	32A-	32dd 32bb-	32b- 32ff
16dd	32d	32A-	32A-	16g	16dd	16dd	16ff	32A-	32A-	32dd 32bb-	32ff 32b-
.	32d	32A-	32A-	.	.	.	.	32A-	32A-	32dd 32bb-	32b- 32ff
16dd	32d	32A-	32A-	16g	16dd	16dd	16ff	32A-	32A-	32dd 32bb-	32b- 32ff
.	32d	32A-	32A-	.	.	.	.	32A-	32A-	32dd 32bb-	32b- 32ff
16dd	32d	32A-	32A-	16g	16dd	16dd	16ff	32A-	32A-	32dd 32bb-	32b- 32ff
.	32d	32A-	32A-	.	.	.	.	32A-	32A-	32dd 32bb-	32ff 32b-
16dd	32d	32A-	32A-	16g	16dd	16dd	16ff	32A-	32A-	32bb- 32dd	32ff 32b-
.	32d	32A-	32A-	.	.	.	.	32A-	32A-	32dd 32bb-	32ff 32b-
16dd	32d	32A-	32A-	16g	16dd	16dd	16ff	32A-	32A-	32dd 32bb-	32ff 32b-
.	32d	32A-	32A-	.	.	.	.	32A-	32A-	32dd 32bb-	32ff 32b-
16dd	32d	32A-	32A-	16g	16dd	16dd	16ff	32A-	32A-	32dd 32bb-	32ff 32b-
.	32d	32A-	32A-	.	.	.	.	32A-	32A-	32dd 32bb-	32ff 32b-
16dd	32d	32A-	32A-	16g	16dd	16dd	16ff	32A-	32A-	32dd 32bb-	32ff 32b-
.	32d	32A-	32A-	.	.	.	.	32A-	32A-	32dd 32bb-	32ff 32b-
16dd	32d	32A-	32A-	16g	16dd	16dd	16ff	32A-	32A-	32dd 32bb-	32ff 32b-
.	32d	32A-	32A-	.	.	.	.	32A-	32A-	32dd 32bb-	32ff 32b-
16dd	32d	32A-	32A-	16g	16dd	16dd	16ff	32A-	32A-	32dd 32bb-	32b- 32ff
.	32d	32A-	32A-	.	.	.	.	32A-	32A-	32dd 32bb-	32ff 32b-
16dd	32d	32A-	32A-	16g	16dd	16dd	16ff	32A-	32A-	32dd 32bb-	32ff 32b-
.	32d	32A-	32A-	.	.	.	.	32A-	32A-	32dd 32bb-	32ff 32b-
=59	=59	=59	=59	=59	=59	=59	=59	=59	=59	=59	=59
8ee	8e-	8G	8G	8cc	8bb-	8ee-	8bb-	8G	8G	8bb- 8b-	8gg 8b-
8ee	8e-	8G	8G	8cc	8bb-	8ee-	8bb-	8G	8G	8b- 8bb-	8gg 8b-
8dd	8f	8D	8D	8g	8aa-	8ff	8aa-	8D	8D	8aa- 8b-	8ff 8b-
8dd	8f	8D	8D	8g	8aa-	8ff	8aa-	8D	8D	8aa- 8b-	8ff 8b-
8ee	8e-	8E-	8E-	8cc	8gg	8ee-	8gg	8E-	8E-	8gg 8b-	8gg 8b-
8ee	8e-	8E-	8E-	8cc	8gg	8ee-	8gg	8E-	8E-	8gg 8b-	8gg 8b-
=60	=60	=60	=60	=60	=60	=60	=60	=60	=60	=60	=60
4dd	4c	4A-	4A-	4dd	4ff	4cc	4ccc	4AA-	4AA-	16r	4cc 4ff
.	.	.	.	.	.	.	.	.	.	16cc	.
.	.	.	.	.	.	.	.	.	.	16ee	.
.	.	.	.	.	.	.	.	.	.	16ff	.
2r	2r	2r	2r	2r	2r	2r	2r	2r	2r	16gg	2r
.	.	.	.	.	.	.	.	.	.	16aa-	.
.	.	.	.	.	.	.	.	.	.	16bb	.
.	.	.	.	.	.	.	.	.	.	16ccc	.
.	.	.	.	.	.	.	.	.	.	16bb-	.
.	.	.	.	.	.	.	.	.	.	16aa-	.
.	.	.	.	.	.	.	.	.	.	16gg	.
.	.	.	.	.	.	.	.	.	.	16ff	.
=61	=61	=61	=61	=61	=61	=61	=61	=61	=61	=61	=61
2.r	4g-	4A	4A	2.r	2.r	2.r	2.r	2.r	2.r	[2.ee-	16r
.	.	.	.	.	.	.	.	.	.	.	16B
.	.	.	.	.	.	.	.	.	.	.	16c
.	.	.	.	.	.	.	.	.	.	.	16e-
.	2r	2r	2r	.	.	.	.	.	.	.	16g-
.	.	.	.	.	.	.	.	.	.	.	16a
.	.	.	.	.	.	.	.	.	.	.	16b-
.	.	.	.	.	.	.	.	.	.	.	16b
.	.	.	.	.	.	.	.	.	.	.	16cc
.	.	.	.	.	.	.	.	.	.	.	16b
.	.	.	.	.	.	.	.	.	.	.	16cc
.	.	.	.	.	.	.	.	.	.	.	16a
=62	=62	=62	=62	=62	=62	=62	=62	=62	=62	=62	=62
2.g	8r	8r	8r	2.G	8r	8r	2.r	2.r	2.r	16ee-]	4b-
.	.	.	.	.	.	.	.	.	.	16dd	.
.	8B-	8B-	8B-	.	8b-	8b-	.	.	.	16cc	.
.	.	.	.	.	.	.	.	.	.	16b-	.
.	8B-	8B-	8B-	.	8b-	8b-	.	.	.	4b-	2r
.	8B-	8B-	8B-	.	8b-	8b-	.	.	.	.	.
.	8B-	8B-	8B-	.	8b-	8b-	.	.	.	4r	.
.	8B-	8B-	8B-	.	8b-	8b-	.	.	.	.	.
=63	=63	=63	=63	=63	=63	=63	=63	=63	=63	=63	=63
[2.g	4a-	4f	4f	[2.G	8r	4aa-	2.r	2.r	2.r	16r	8r
.	.	.	.	.	.	.	.	.	.	16b-	.
.	.	.	.	.	8bb-	.	.	.	.	16cc	8b-
.	.	.	.	.	.	.	.	.	.	16dd	.
.	4g	4e-	4e-	.	8bb-	4gg	.	.	.	16ee-	8b-
.	.	.	.	.	.	.	.	.	.	16ff	.
.	.	.	.	.	8bb-	.	.	.	.	16gg	8b-
.	.	.	.	.	.	.	.	.	.	16aa-	.
.	4f	4d	4d	.	8bb-	4ff	.	.	.	8bb-	8b-
.	.	.	.	.	8bb-	.	.	.	.	8bb-	8b-
=64	=64	=64	=64	=64	=64	=64	=64	=64	=64	=64	=64
2.g_	8r	8r	8r	2.G_	4bb-	8r	16r	2.r	2.r	4aa-	4ff
.	.	.	.	.	.	.	16b-	.	.	.	.
.	8B-	8B-	8B-	.	.	8b-	16cc	.	.	.	.
.	.	.	.	.	.	.	16dd	.	.	.	.
.	8B-	8B-	8B-	.	2r	8b-	16ee-	.	.	4gg	4ee-
.	.	.	.	.	.	.	16ff	.	.	.	.
.	8B-	8B-	8B-	.	.	8b-	16gg	.	.	.	.
.	.	.	.	.	.	.	16aa-	.	.	.	.
.	8B-	8B-	8B-	.	.	8b-	8bb-	.	.	4ff	4dd
.	8B-	8B-	8B-	.	.	8b-	8bb-	.	.	.	.
=65	=65	=65	=65	=65	=65	=65	=65	=65	=65	=65	=65
2.g_	4b-	4g	4g	2.G_	8r	4bb-	4bb-	2.r	2.r	16r	8r
.	.	.	.	.	.	.	.	.	.	16b-	.
.	.	.	.	.	8bb-	.	.	.	.	16cc	8b-
.	.	.	.	.	.	.	.	.	.	16dd	.
.	4a-	4f	4f	.	8bb-	4aa-	2r	.	.	16ee-	8b-
.	.	.	.	.	.	.	.	.	.	16ff	.
.	.	.	.	.	8bb-	.	.	.	.	16gg	8b-
.	.	.	.	.	.	.	.	.	.	16aa-	.
.	4g	4e-	4e-	.	8bb-	4gg	.	.	.	8bb-	8b-
.	.	.	.	.	8bb-	.	.	.	.	8bb-	8b-
=66	=66	=66	=66	=66	=66	=66	=66	=66	=66	=66	=66
2.g_	8r	8r	8r	2.G_	4bb-	8r	16r	2.r	2.r	4bb-	4gg
.	.	.	.	.	.	.	16b-	.	.	.	.
.	8B-	8B-	8B-	.	.	8b-	16cc	.	.	.	.
.	.	.	.	.	.	.	16dd	.	.	.	.
.	8B-	8B-	8B-	.	2r	8b-	16ee-	.	.	4aa-	4ff
.	.	.	.	.	.	.	16ff	.	.	.	.
.	8B-	8B-	8B-	.	.	8b-	16gg	.	.	.	.
.	.	.	.	.	.	.	16aa-	.	.	.	.
.	8B-	8B-	8B-	.	.	8b-	8bb-	.	.	4gg	4ee-
.	8B-	8B-	8B-	.	.	8b-	8bb-	.	.	.	.
=67	=67	=67	=67	=67	=67	=67	=67	=67	=67	=67	=67
2.g]	4a-	4f	4f	2.G]	8r	4aa-	4bb-	2.r	2.r	16r	8r
.	.	.	.	.	.	.	.	.	.	16b-	.
.	.	.	.	.	8bb-	.	.	.	.	16cc	8b-
.	.	.	.	.	.	.	.	.	.	16dd	.
.	4g	4e-	4e-	.	8bb-	4gg	2r	.	.	16ee-	8b-
.	.	.	.	.	.	.	.	.	.	16ff	.
.	.	.	.	.	8bb-	.	.	.	.	16gg	8b-
.	.	.	.	.	.	.	.	.	.	16aa-	.
.	4f	4d	4d	.	8bb-	4ff	.	.	.	16bb-	8b-
.	.	.	.	.	.	.	.	.	.	16bb-	.
.	.	.	.	.	8bb-	.	.	.	.	16ccc	8b-
.	.	.	.	.	.	.	.	.	.	16ddd	.
=68	=68	=68	=68	=68	=68	=68	=68	=68	=68	=68	=68
4cc	4g	8c	8c	4c	4ee-	4ee-	16r	2.r	2.r	2eee-	8e-
.	.	.	.	.	.	.	16ee-	.	.	.	.
.	.	8c	8c	.	.	.	16ff	.	.	.	16f
.	.	.	.	.	.	.	16gg	.	.	.	16g
2r	4a	8c	8c	2r	2r	2r	16aa	.	.	.	16a
.	.	.	.	.	.	.	16bb-	.	.	.	16b-
.	.	8c	8c	.	.	.	16ccc	.	.	.	16cc
.	.	.	.	.	.	.	16ddd	.	.	.	16dd
.	4c	8c	8c	.	.	.	8eee-	.	.	16ddd	8ee-
.	.	.	.	.	.	.	.	.	.	16ccc	.
.	.	8c	8c	.	.	.	8aa	.	.	16bb-	8e-
.	.	.	.	.	.	.	.	.	.	16aa	.
=69	=69	=69	=69	=69	=69	=69	=69	=69	=69	=69	=69
2.r	8B-	8B-	8B-	2.r	2.r	2.r	4ccc	2.r	2.r	4ccc	4e-
.	8B-	8B-	8B-	.	.	.	.	.	.	.	.
.	8B-	8B-	8B-	.	.	.	8bb-	.	.	8bb-	8d
.	8B-	8B-	8B-	.	.	.	8ff	.	.	8ff	8dd
.	8B-	8B-	8B-	.	.	.	8gg	.	.	8gg	8ee-
.	8B-	8B-	8B-	.	.	.	8cc	.	.	8cc	8a
=70	=70	=70	=70	=70	=70	=70	=70	=70	=70	=70	=70
2.r	8B-	8BB-	8BB-	2.r	2.r	2.r	4ee-	2.r	2.r	4ee-	4a
.	8B-	8BB-	8BB-	.	.	.	.	.	.	.	.
.	8B-	8BB-	8BB-	.	.	.	8dd	.	.	8dd	8b-
.	8B-	8BB-	8BB-	.	.	.	8dd	.	.	8dd	8f
.	8B-	8BB-	8BB-	.	.	.	8ee-	.	.	8ee-	8g
.	8B-	8BB-	8BB-	.	.	.	8a	.	.	8a	8e-
=71	=71	=71	=71	=71	=71	=71	=71	=71	=71	=71	=71
2.r	4B-	4BB-	4BB-	2.r	2.r	2.r	4cc	2.r	2.r	4cc	4e-
.	2r	2r	2r	.	.	.	8b-	.	.	8b-	8d
.	.	.	.	.	.	.	4.r	.	.	8a-	8c
.	.	.	.	.	.	.	.	.	.	8g	8B-
.	.	.	.	.	.	.	.	.	.	8f	8A-
=72	=72	=72	=72	=72	=72	=72	=72	=72	=72	=72	=72
2.r	4e-	4E-	4E-	2.r	2.r	2.r	2.r	2.r	2.r	8e-	4G
.	.	.	.	.	.	.	.	.	.	8e-	.
.	2r	2r	2r	.	.	.	.	.	.	8e-	2r
.	.	.	.	.	.	.	.	.	.	8e-	.
.	.	.	.	.	.	.	.	.	.	8e-	.
.	.	.	.	.	.	.	.	.	.	8e-	.
=73	=73	=73	=73	=73	=73	=73	=73	=73	=73	=73	=73
2.r	8r	8r	8r	2.r	2.r	2.r	16r	2.r	2.r	4b-	8r
.	.	.	.	.	.	.	16e-	.	.	.	.
.	8e-	8E-	8E-	.	.	.	16f	.	.	.	8c
.	.	.	.	.	.	.	16g	.	.	.	.
.	8e-	8E-	8E-	.	.	.	16a-	.	.	4a-	8c
.	.	.	.	.	.	.	16b-	.	.	.	.
.	8e-	8E-	8E-	.	.	.	16cc	.	.	.	8c
.	.	.	.	.	.	.	16dd	.	.	.	.
.	8e-	8E-	8E-	.	.	.	16ee-	.	.	8.g	8B-
.	.	.	.	.	.	.	16dd	.	.	.	.
.	8e-	8E-	8E-	.	.	.	16ee-	.	.	.	8B-
.	.	.	.	.	.	.	16ee	.	.	32f	.
.	.	.	.	.	.	.	.	.	.	32g	.
=74	=74	=74	=74	=74	=74	=74	=74	=74	=74	=74	=74
2.r	4e-	4E-	4E-	2.r	2.r	2.r	4ff	2.r	2.r	8f	4A-
.	.	.	.	.	.	.	.	.	.	8f	.
.	2r	2r	2r	.	.	.	2r	.	.	8f	2r
.	.	.	.	.	.	.	.	.	.	8f	.
.	.	.	.	.	.	.	.	.	.	8f	.
.	.	.	.	.	.	.	.	.	.	8f	.
=75	=75	=75	=75	=75	=75	=75	=75	=75	=75	=75	=75
2.r	8r	8r	8r	2.r	2.r	2.r	16r	2.r	2.r	4cc	8r
.	.	.	.	.	.	.	16a-	.	.	.	.
.	8a-	8E-	8E-	.	.	.	16b-	.	.	.	8d
.	.	.	.	.	.	.	16cc	.	.	.	.
.	8g	8E-	8E-	.	.	.	16dd	.	.	4b-	8d
.	.	.	.	.	.	.	16ee-	.	.	.	.
.	8g	8E-	8E-	.	.	.	16ff	.	.	.	8d
.	.	.	.	.	.	.	16gg	.	.	.	.
.	8f	8E-	8E-	.	.	.	16aa-	.	.	8.a-	8d
.	.	.	.	.	.	.	16bb-	.	.	.	.
.	8f	8E-	8E-	.	.	.	16ccc	.	.	.	8d
.	.	.	.	.	.	.	16ddd	.	.	32g	.
.	.	.	.	.	.	.	.	.	.	32a-	.
=76	=76	=76	=76	=76	=76	=76	=76	=76	=76	=76	=76
2.r	4e-	4E-	4E-	2.r	2.r	2.r	4eee-	2.r	2.r	8g	4e-
.	.	.	.	.	.	.	.	.	.	8ee-	.
.	2r	2r	2r	.	.	.	2r	.	.	8ee-	2r
.	.	.	.	.	.	.	.	.	.	8ee-	.
.	.	.	.	.	.	.	.	.	.	8ee-	.
.	.	.	.	.	.	.	.	.	.	8ee-	.
=77	=77	=77	=77	=77	=77	=77	=77	=77	=77	=77	=77
2.r	8r	8r	8r	2.r	2.r	2.r	2.r	2.r	2.r	[4gg	8r
.	8B-	8GG	8GG	.	.	.	.	.	.	.	8e-
.	8B-	8GG	8GG	.	.	.	.	.	.	16gg]	8e-
.	.	.	.	.	.	.	.	.	.	16aa-	.
.	8B-	8GG	8GG	.	.	.	.	.	.	16aa	8e-
.	.	.	.	.	.	.	.	.	.	16bb-	.
.	8B-	8GG	8GG	.	.	.	.	.	.	16aa-	8e-
.	.	.	.	.	.	.	.	.	.	16gg	.
.	8B-	8GG	8GG	.	.	.	.	.	.	16ff	8e-
.	.	.	.	.	.	.	.	.	.	16ee-	.
=78	=78	=78	=78	=78	=78	=78	=78	=78	=78	=78	=78
2.r	8A-	8AA-	8AA-	2.r	2.r	2.r	2.r	2.r	2.r	16dd	8e-
.	.	.	.	.	.	.	.	.	.	16cc	.
.	8A-	8AA-	8AA-	.	.	.	.	.	.	16ee-	8e-
.	.	.	.	.	.	.	.	.	.	16cc	.
.	8A-	8AA-	8AA-	.	.	.	.	.	.	16b-	8c
.	.	.	.	.	.	.	.	.	.	16a-	.
.	8A-	8AA-	8AA-	.	.	.	.	.	.	16cc	8c
.	.	.	.	.	.	.	.	.	.	16a-	.
.	8A-	8AA-	8AA-	.	.	.	.	.	.	16g	8cc
.	.	.	.	.	.	.	.	.	.	16f	.
.	8A	8AA	8AA	.	.	.	.	.	.	16g	8cc
.	.	.	.	.	.	.	.	.	.	16e-	.
=79	=79	=79	=79	=79	=79	=79	=79	=79	=79	=79	=79
[2.dd	8B-	8BB-	8BB-	[2.g	2.ff	[2.dd	2.bb-	2.B-	2.B-	16bb-	8bb- 8b- 8d
.	.	.	.	.	.	.	.	.	.	32aa	.
.	.	.	.	.	.	.	.	.	.	32gg	.
.	8d	8BB-	8BB-	.	.	.	.	.	.	32ff	8bb- 8b- 8d
.	.	.	.	.	.	.	.	.	.	32ee-	.
.	.	.	.	.	.	.	.	.	.	32dd	.
.	.	.	.	.	.	.	.	.	.	32cc	.
.	8f	8BB-	8BB-	.	.	.	.	.	.	16b-	8bb- 8d 8b-
.	.	.	.	.	.	.	.	.	.	32a	.
.	.	.	.	.	.	.	.	.	.	32g	.
.	8b-	8BB-	8BB-	.	.	.	.	.	.	32f	8bb- 8b- 8d
.	.	.	.	.	.	.	.	.	.	32e-	.
.	.	.	.	.	.	.	.	.	.	32d	.
.	.	.	.	.	.	.	.	.	.	32c	.
.	8f	8BB-	8BB-	.	.	.	.	.	.	8B-	8d 8b- 8bb-
.	8d	8BB-	8BB-	.	.	.	.	.	.	8r	8bb- 8d 8b-
=80	=80	=80	=80	=80	=80	=80	=80	=80	=80	=80	=80
2.dd]	8B-	8BB-	8BB-	2.g]	2.aa-	2.dd]	2.ff	2.d	2.A-	16bb-	8aa- 8d 8b-
.	.	.	.	.	.	.	.	.	.	32aa-	.
.	.	.	.	.	.	.	.	.	.	32gg	.
.	8d	8BB-	8BB-	.	.	.	.	.	.	32ff	8b- 8aa- 8d
.	.	.	.	.	.	.	.	.	.	32ee-	.
.	.	.	.	.	.	.	.	.	.	32dd	.
.	.	.	.	.	.	.	.	.	.	32cc	.
.	8f	8BB-	8BB-	.	.	.	.	.	.	16b-	8d 8b- 8aa-
.	.	.	.	.	.	.	.	.	.	32a-	.
.	.	.	.	.	.	.	.	.	.	32g	.
.	8a-	8BB-	8BB-	.	.	.	.	.	.	32f	8d 8aa- 8b-
.	.	.	.	.	.	.	.	.	.	32e-	.
.	.	.	.	.	.	.	.	.	.	32d	.
.	.	.	.	.	.	.	.	.	.	32c	.
.	8f	8BB-	8BB-	.	.	.	.	.	.	8B-	8d 8aa- 8b-
.	8d	8BB-	8BB-	.	.	.	.	.	.	8r	8aa- 8b- 8d
=81	=81	=81	=81	=81	=81	=81	=81	=81	=81	=81	=81
2ee	16e-	16E-	16E-	2cc	2gg	2ee-	2gg	2e-	2G	16eee-	8e- 8gg 8b-
.	32f	32F	32F	.	.	.	.	.	.	32ddd	.
.	32g	32G	32G	.	.	.	.	.	.	32ccc	.
.	32a-	32A-	32A-	.	.	.	.	.	.	32bb-	8gg 8b- 8e-
.	32b-	32B-	32B-	.	.	.	.	.	.	32aa-	.
.	32cc	32c	32c	.	.	.	.	.	.	32gg	.
.	32dd	32d	32d	.	.	.	.	.	.	32ff	.
.	16ee-	16e-	16e-	.	.	.	.	.	.	16ee-	8gg 8e- 8b-
.	32dd	32d	32d	.	.	.	.	.	.	32dd	.
.	32cc	32c	32c	.	.	.	.	.	.	32cc	.
.	32b-	32B-	32B-	.	.	.	.	.	.	32b-	8gg 8b- 8e-
.	32a-	32A-	32A-	.	.	.	.	.	.	32a-	.
.	32g	32G	32G	.	.	.	.	.	.	32g	.
.	32f	32F	32F	.	.	.	.	.	.	32f	.
4r	8e-	8E-	8E-	4r	4r	4r	4r	4r	4r	8e-	8e-
.	8d	8r	8r	.	.	.	.	.	.	8r	8f
=82	=82	=82	=82	=82	=82	=82	=82	=82	=82	=82	=82
2.r	8e-	2.r	2.r	2.r	2.r	2.r	2.r	2.r	2.r	2.r	8g
.	8f	.	.	.	.	.	.	.	.	.	8a-
.	8g	.	.	.	.	.	.	.	.	.	8b-
.	8g	.	.	.	.	.	.	.	.	.	8b-
.	8g	.	.	.	.	.	.	.	.	.	8b-
.	8g	.	.	.	.	.	.	.	.	.	8b-
=83	=83	=83	=83	=83	=83	=83	=83	=83	=83	=83	=83
2.r	8g	2.r	2.r	2.r	2.r	2.r	2.r	2.r	2.r	2.r	8b-
.	8g	.	.	.	.	.	.	.	.	.	8b-
.	8g	.	.	.	.	.	.	.	.	.	8b-
.	8g	.	.	.	.	.	.	.	.	.	8b-
.	8g	.	.	.	.	.	.	.	.	.	8b-
.	8g	.	.	.	.	.	.	.	.	.	8b-
=84	=84	=84	=84	=84	=84	=84	=84	=84	=84	=84	=84
2.r	8a-	2.r	2.r	2.r	2.r	2.r	2.r	2.r	2.r	8dd	8cc-
.	8a-	.	.	.	.	.	.	.	.	8dd	8cc-
.	8a-	.	.	.	.	.	.	.	.	8dd	8cc-
.	8a-	.	.	.	.	.	.	.	.	8dd	8cc-
.	8a-	.	.	.	.	.	.	.	.	8dd	8cc-
.	8a-	.	.	.	.	.	.	.	.	8dd	8cc-
=85	=85	=85	=85	=85	=85	=85	=85	=85	=85	=85	=85
2dd	32f	32D	32D	2g	2aa-	2ff	2.bb-	2d	2d	32aa- 32b-	32b- 32ff
.	32f	32D	32D	.	.	.	.	.	.	32aa- 32b-	32ff 32b-
.	32f	32D	32D	.	.	.	.	.	.	32aa- 32b-	32ff 32b-
.	32f	32D	32D	.	.	.	.	.	.	32aa- 32b-	32b- 32ff
.	32f	32D	32D	.	.	.	.	.	.	32b- 32aa-	32b- 32ff
.	32f	32D	32D	.	.	.	.	.	.	32aa- 32b-	32b- 32ff
.	32f	32D	32D	.	.	.	.	.	.	32aa- 32b-	32b- 32ff
.	32f	32D	32D	.	.	.	.	.	.	32aa- 32b-	32ff 32b-
.	32f	32D	32D	.	.	.	.	.	.	32b- 32aa-	32ff 32b-
.	32f	32D	32D	.	.	.	.	.	.	32aa- 32b-	32ff 32b-
.	32f	32D	32D	.	.	.	.	.	.	32aa- 32b-	32ff 32b-
.	32f	32D	32D	.	.	.	.	.	.	32aa- 32b-	32ff 32b-
.	32f	32D	32D	.	.	.	.	.	.	32aa- 32b-	32ff 32b-
.	32f	32D	32D	.	.	.	.	.	.	32b- 32aa-	32ff 32b-
.	32f	32D	32D	.	.	.	.	.	.	32b- 32aa-	32ff 32b-
.	32f	32D	32D	.	.	.	.	.	.	32aa- 32b-	32ff 32b-
4ee	32e-	32E-	32E-	4cc	4gg	4ee-	.	4e-	4e-	32b- 32gg	32b- 32gg
.	32e-	32E-	32E-	.	.	.	.	.	.	32b- 32gg	32gg 32b-
.	32e-	32E-	32E-	.	.	.	.	.	.	32b- 32gg	32gg 32b-
.	32e-	32E-	32E-	.	.	.	.	.	.	32gg 32b-	32gg 32b-
.	32e-	32E-	32E-	.	.	.	.	.	.	32gg 32b-	32gg 32b-
.	32e-	32E-	32E-	.	.	.	.	.	.	32gg 32b-	32gg 32b-
.	32e-	32E-	32E-	.	.	.	.	.	.	32b- 32gg	32b- 32gg
.	32e-	32E-	32E-	.	.	.	.	.	.	32b- 32gg	32b- 32gg
=86	=86	=86	=86	=86	=86	=86	=86	=86	=86	=86	=86
8ff	8A-	8AA-	8AA-	8dd	8ff	8cc	8aa-	8A-	8A-	8ff	8cc
8r	8r	8r	8r	8r	8r	8r	8r	8r	8r	8r	8r
8ee	8B-	8BB-	8BB-	8cc	8ee-	8b-	8gg	8B-	8B-	8ee-	8g
8r	8r	8r	8r	8r	8r	8r	8r	8r	8r	8r	8r
8dd	8B-	8BB-	8BB-	8g	8dd	8a-	8ff	8B-	8B-	8dd	8f
8r	8r	8r	8r	8r	8r	8r	8r	8r	8r	8r	8r
=87	=87	=87	=87	=87	=87	=87	=87	=87	=87	=87	=87
2.r	8e-	8e-	8e-	2.r	2.r	2.r	2.r	2.r	2.r	8gg	8e-
.	8r	8r	8r	.	.	.	.	.	.	16gg	8r
.	.	.	.	.	.	.	.	.	.	16ff	.
.	8B-	8B-	8B-	.	.	.	.	.	.	8ff	8dd
.	8r	8r	8r	.	.	.	.	.	.	16ff	8r
.	.	.	.	.	.	.	.	.	.	16ee-	.
.	8c	8c	8c	.	.	.	.	.	.	8ee-	8g
.	8r	8r	8r	.	.	.	.	.	.	16ee-	8r
.	.	.	.	.	.	.	.	.	.	16dd	.
=88	=88	=88	=88	=88	=88	=88	=88	=88	=88	=88	=88
2.r	8G	8G	8G	2.r	2.r	2.r	2.r	2.r	2.r	8dd	8b-
.	8r	8r	8r	.	.	.	.	.	.	16dd	8r
.	.	.	.	.	.	.	.	.	.	16cc	.
.	8A-	8A-	8A-	.	.	.	.	.	.	8cc	8e-
.	8r	8r	8r	.	.	.	.	.	.	16cc	8r
.	.	.	.	.	.	.	.	.	.	16b-	.
.	8E-	8E-	8E-	.	.	.	.	.	.	16b-	8g
.	.	.	.	.	.	.	.	.	.	16cc	.
.	8r	8r	8r	.	.	.	.	.	.	16dd	8r
.	.	.	.	.	.	.	.	.	.	16ee-	.
=89	=89	=89	=89	=89	=89	=89	=89	=89	=89	=89	=89
2.r	8A-	8A-	8A-	2.r	2.r	2.r	2.r	2.r	2.r	16dd	8e-
.	.	.	.	.	.	.	.	.	.	16cc	.
.	8r	8r	8r	.	.	.	.	.	.	16b-	8r
.	.	.	.	.	.	.	.	.	.	16a-	.
.	8B-	8B-	8B-	.	.	.	.	.	.	16g	8e-
.	.	.	.	.	.	.	.	.	.	16a-	.
.	8r	8r	8r	.	.	.	.	.	.	16b-	8r
.	.	.	.	.	.	.	.	.	.	16cc	.
.	8B-	8BB-	8BB-	.	.	.	.	.	.	16b-	8d
.	.	.	.	.	.	.	.	.	.	16a-	.
.	8r	8r	8r	.	.	.	.	.	.	16g	8r
.	.	.	.	.	.	.	.	.	.	16f	.
=90	=90	=90	=90	=90	=90	=90	=90	=90	=90	=90	=90
2.r	4G	4E-	4E-	2.r	2.r	2.r	2.r	2.r	2.r	8e-	4e-
.	.	.	.	.	.	.	.	.	.	8G	.
.	2r	2r	2r	.	.	.	.	.	.	8B-	2r
.	.	.	.	.	.	.	.	.	.	8e-	.
.	.	.	.	.	.	.	.	.	.	8g	.
.	.	.	.	.	.	.	.	.	.	8b-	.
=91	=91	=91	=91	=91	=91	=91	=91	=91	=91	=91	=91
2.r	8g	8G	8G	2.r	2.r	2.r	2.r	2.r	2.r	8ee-	8B-
.	16g	16G	16G	.	.	.	.	.	.	16ee-	8B-
.	16a-	16A-	16A-	.	.	.	.	.	.	16dd	.
.	8g	8G	8G	.	.	.	.	.	.	8ee-	8B-
.	16g	16G	16G	.	.	.	.	.	.	16ee-	8B-
.	16a-	16A-	16A-	.	.	.	.	.	.	16dd	.
.	8g	8G	8G	.	.	.	.	.	.	8ee-	8B-
.	16g	16G	16G	.	.	.	.	.	.	16ee-	8B-
.	16a-	16A-	16A-	.	.	.	.	.	.	16dd	.
=92	=92	=92	=92	=92	=92	=92	=92	=92	=92	=92	=92
2.r	8g	8G	8G	2.r	2.r	2.r	2.r	2.r	2.r	8ee-	8e-
.	8G	8G	8G	.	.	.	.	.	.	8b	8e-
.	8G	8G	8G	.	.	.	.	.	.	8b	8e-
.	8G	8G	8G	.	.	.	.	.	.	8b	8e-
.	8G	8G	8G	.	.	.	.	.	.	8b	8e-
.	8G	8G	8G	.	.	.	.	.	.	8b	8e-
=93	=93	=93	=93	=93	=93	=93	=93	=93	=93	=93	=93
2.r	8A-	8A-	8A-	2.r	2.r	2.r	2.r	2.r	2.r	4b	8e-
.	8A-	8A-	8A-	.	.	.	.	.	.	.	8e-
.	8A-	8A-	8A-	.	.	.	.	.	.	4cc	8e-
.	8A-	8A-	8A-	.	.	.	.	.	.	.	8e-
.	8A-	8A-	8A-	.	.	.	.	.	.	4dd-	8f-
.	8A-	8A-	8A-	.	.	.	.	.	.	.	8f-
=94	=94	=94	=94	=94	=94	=94	=94	=94	=94	=94	=94
2.r	8A-	8A-	8A-	2.r	2.r	2.r	2.r	2.r	2.r	4dd	8f
.	8A-	8A-	8A-	.	.	.	.	.	.	.	8f
.	8A	8A	8A	.	.	.	.	.	.	8ee-	8g-
.	8A	8A	8A	.	.	.	.	.	.	8ee-	8g-
.	8A	8A	8A	.	.	.	.	.	.	8ee-	8g-
.	8A	8A	8A	.	.	.	.	.	.	8ee-	8g-
=95	=95	=95	=95	=95	=95	=95	=95	=95	=95	=95	=95
2.r	4B-	4B-	4B-	2.r	2.r	2.r	2.r	2.r	2.r	8ee-	4g
.	.	.	.	.	.	.	.	.	.	32ee-	.
.	.	.	.	.	.	.	.	.	.	32dd	.
.	.	.	.	.	.	.	.	.	.	32ee-	.
.	.	.	.	.	.	.	.	.	.	32ff	.
.	2r	2r	2r	.	.	.	.	.	.	16gg	2r
.	.	.	.	.	.	.	.	.	.	16dd	.
.	.	.	.	.	.	.	.	.	.	16ee-	.
.	.	.	.	.	.	.	.	.	.	16ff	.
.	.	.	.	.	.	.	.	.	.	16gg	.
.	.	.	.	.	.	.	.	.	.	16dd	.
.	.	.	.	.	.	.	.	.	.	16ee-	.
.	.	.	.	.	.	.	.	.	.	16ff	.
=96	=96	=96	=96	=96	=96	=96	=96	=96	=96	=96	=96
2.r	2.r	2.r	2.r	2.r	2.r	2.r	2.r	2.r	2.r	16gg	2.r
.	.	.	.	.	.	.	.	.	.	16dd	.
.	.	.	.	.	.	.	.	.	.	16ee-	.
.	.	.	.	.	.	.	.	.	.	16ff	.
.	.	.	.	.	.	.	.	.	.	16gg	.
.	.	.	.	.	.	.	.	.	.	16dd	.
.	.	.	.	.	.	.	.	.	.	16ff	.
.	.	.	.	.	.	.	.	.	.	16ee-	.
.	.	.	.	.	.	.	.	.	.	16dd	.
.	.	.	.	.	.	.	.	.	.	16cc	.
.	.	.	.	.	.	.	.	.	.	16b-	.
.	.	.	.	.	.	.	.	.	.	16a	.
=97	=97	=97	=97	=97	=97	=97	=97	=97	=97	=97	=97
2.r	8B-	8BB-	8BB-	2.r	2.r	2.r	2.r	2.r	2.r	16a-	8e-
.	.	.	.	.	.	.	.	.	.	16g	.
.	8B-	8BB-	8BB-	.	.	.	.	.	.	16f	8e-
.	.	.	.	.	.	.	.	.	.	16e-	.
.	8B-	8BB-	8BB-	.	.	.	.	.	.	2f	8e-
.	8B-	8BB-	8BB-	.	.	.	.	.	.	.	8e-
.	8B-	8BB-	8BB-	.	.	.	.	.	.	.	8d
.	8B-	8BB-	8BB-	.	.	.	.	.	.	.	8d
=98	=98	=98	=98	=98	=98	=98	=98	=98	=98	=98	=98
2.r	2.r	2.E-	2.E-	2.r	8r	2.r	2.r	2.r	2.r	8e-	4e-
.	.	.	.	.	8ee-	.	.	.	.	8e-	.
.	.	.	.	.	8ee-	.	.	.	.	8e-	2r
.	.	.	.	.	8ee-	.	.	.	.	8e-	.
.	.	.	.	.	8ee-	.	.	.	.	8e-	.
.	.	.	.	.	8ee-	.	.	.	.	8e-	.
=99	=99	=99	=99	=99	=99	=99	=99	=99	=99	=99	=99
8r	4d-	4d-	[2.E-	8r	4bb-	4g	4dd-	[2.E-	[2.E-	4b-	4G
8c	.	.	.	8C	.	.	.	.	.	.	.
8c	4c	4c	.	8C	4aa-	4a-	4cc	.	.	4a-	4A-
8c	.	.	.	8C	.	.	.	.	.	.	.
8c	4B-	4B-	.	8C	4gg	4b-	4b-	.	.	8.g	8.B-
8c	.	.	.	8C	.	.	.	.	.	.	.
.	.	.	.	.	.	.	.	.	.	32f	16c
.	.	.	.	.	.	.	.	.	.	32g	.
=100	=100	=100	=100	=100	=100	=100	=100	=100	=100	=100	=100
2.c	4A-	4A-	2.E-_	2.C	8ff	4a-	4cc	4E-]	4E-]	8f	8d
.	.	.	.	.	8ff	.	.	.	.	8f	8d
.	2r	2r	.	.	8ff	2r	2r	2r	2r	8f	8d
.	.	.	.	.	8ff	.	.	.	.	8f	8d
.	.	.	.	.	8ff	.	.	.	.	8f	8d
.	.	.	.	.	8ff	.	.	.	.	8f	8d
=101	=101	=101	=101	=101	=101	=101	=101	=101	=101	=101	=101
8r	[2.d	4A-	2.E-_	8r	4ccc	4aa-	[2.ddd	[2.d	[2.d	4cc	4a-
8c	.	.	.	8C	.	.	.	.	.	.	.
8c	.	4B-	.	8C	4bb-	4gg	.	.	.	4b-	4g
8c	.	.	.	8C	.	.	.	.	.	.	.
8c	.	4c-	.	8C	4aa-	4ff	.	.	.	4a-	4f
8c	.	.	.	8C	.	.	.	.	.	.	.
=102	=102	=102	=102	=102	=102	=102	=102	=102	=102	=102	=102
2.c	2.d]	2.c-	2.E-_	2.C	2.aa-	2.ff	2.ddd]	2.d]	2.d]	2.a-	2.f
=103	=103	=103	=103	=103	=103	=103	=103	=103	=103	=103	=103
8c	8e-	8B-	8E-]	8C	8gg	8ee-	8eee-	8e-	8e-	8g	8e-
8r	8r	8r	8r	8r	8r	8r	8r	8r	8r	8r	8r
8c	8e-	8E-	8E-	8C	8ee-	8g	8eee-	8E-	8E-	8g	8B-
8r	8r	8r	8r	8r	8r	8r	8r	8r	8r	8r	8r
8c	8e-	8E-	8E-	8C	8ee-	8g	8eee-	8E-	8E-	8g	8B-
8r	8r	8r	8r	8r	8r	8r	8r	8r	8r	8r	8r
=104	=104	=104	=104	=104	=104	=104	=104	=104	=104	=104	=104
4c	4e-	4E-	4E-	4C	4ee-	4g	4eee-	4E-	4E-	4g	4B-
2r	2r	2r	2r	2r	2r	2r	2r	2r	2r	2r	2r
==	==	==	==	==	==	==	==	==	==	==	==
*-	*-	*-	*-	*-	*-	*-	*-	*-	*-	*-	*-
!!!RWG1: This file contains only pitch and duration data.
!!!RWG2: Transposing instruments are not transposed.
!!!RWG3: Spines may have incompatible meters.
!!!RWG4: Durations of rests and tied notes may be interpreted.
!!!RWG: Key is interpreted using the Humdrum key tool.
!!!OPT: La Poule
!!!AFT: stage1
!!!END: 1997/04/15
!!format changes:
!!content changes:
!!public access: complete
!!!KEY: 2271163846
!!!EMD: Converted from MuseData to Humdrum Dec 16, 2000, by Andreas Kornstaedt using muse2kern.
